icons-rebrand/svg/audio-microphone-on-bold.svg

<svg width="32" height="32" viewBox="0 0 32 32" fill="none" xmlns="http://www.w3.org/2000/svg">
<path d="M24.0019 28H22.0229C20.843 28.0291 19.6925 27.6292 18.7849 26.8745C17.8774 26.1198 17.2744 25.0615 17.0879 23.896C18.466 23.6407 19.7113 22.9116 20.6084 21.8348C21.5054 20.758 21.9977 19.4015 21.9999 18V8C21.9999 6.4087 21.3678 4.88258 20.2426 3.75736C19.1174 2.63214 17.5912 2 15.9999 2C14.4086 2 12.8825 2.63214 11.7573 3.75736C10.6321 4.88258 9.99993 6.4087 9.99993 8V18C10.0024 19.4282 10.5139 20.8087 11.4426 21.8937C12.3712 22.9787 13.6563 23.6971 15.0669 23.92C15.2551 25.4664 15.9598 26.904 17.0669 28H8.00293C7.73771 28 7.48336 28.1054 7.29582 28.2929C7.10829 28.4804 7.00293 28.7348 7.00293 29C7.00293 29.2652 7.10829 29.5196 7.29582 29.7071C7.48336 29.8946 7.73771 30 8.00293 30H24.0029C24.2681 30 24.5225 29.8946 24.71 29.7071C24.8976 29.5196 25.0029 29.2652 25.0029 29C25.0029 28.7348 24.8976 28.4804 24.71 28.2929C24.5225 28.1054 24.2681 28 24.0029 28H24.0019ZM12.0009 14.988V13H20.0009V14.988H12.0009ZM15.9999 4C17.0605 4.00106 18.0773 4.42283 18.8272 5.17274C19.5771 5.92266 19.9989 6.93946 19.9999 8V11H11.9999V8C12.001 6.93946 12.4228 5.92266 13.1727 5.17274C13.9226 4.42283 14.9394 4.00106 15.9999 4Z" fill="#0F0F0F"/>
<path d="M12 15H20V18C20 19.0609 19.5786 20.0783 18.8284 20.8284C18.0783 21.5786 17.0609 22 16 22C14.9391 22 13.9217 21.5786 13.1716 20.8284C12.4214 20.0783 12 19.0609 12 18V15ZM12 11H20V13H12V11Z" fill="#27A17A"/>
</svg>

<svg width="32" height="32" viewBox="0 0 32 32" fill="none" xmlns="http://www.w3.org/2000/svg"><path d="M24.002 28h-1.979a4.876 4.876 0 0 1-4.935-4.104A6.006 6.006 0 0 0 22 18V8a6 6 0 1 0-12 0v10a6.004 6.004 0 0 0 5.067 5.92 6.917 6.917 0 0 0 2 4.08H8.003a1 1 0 0 0 0 2h16a1 1 0 1 0 0-2zM12.001 14.988V13h8v1.988h-8zM16 4a4.004 4.004 0 0 1 4 4v3h-8V8a4.004 4.004 0 0 1 4-4z" fill="#0F0F0F"/><path d="M12 15h8v3a4 4 0 0 1-8 0v-3zM12 11h8v2h-8z" fill="#27A17A"/></svg>
